X:293
T: ES SASS EIN KAEFER AUF DEM BAEUMEL
N: E0164A
O: Europa, Mitteleuropa, Deutschland, Breslau
R: erzaehlendes Volks - Lied, Sage, Tier - Maerchen, Scherz
M: 3/4
L: 1/8
K: G
D2 | GFGFGF | G2D2F2 | G2z2
G2 | d^cdcdc | d2A2
B2 | cBc2BA | A2G2D2 | G2z2

